packages/kaspersky-hexa-ui-icons/src/iconsSVGs/28x20/FlagCsa.svg

<svg width="28" height="20" viewBox="0 0 28 20" fill="none" xmlns="http://www.w3.org/2000/svg">
<g clip-path="url(#clip0_5138_2183)">
<rect width="28" height="20" rx="2" fill="white"/>
<mask id="mask0_5138_2183" style="mask-type:luminance" maskUnits="userSpaceOnUse" x="0" y="0" width="28" height="20">
<rect width="28" height="20" rx="2" fill="white"/>
</mask>
<g mask="url(#mask0_5138_2183)">
<rect width="28" height="20" fill="#19BFBF"/>
<path fill-rule="evenodd" clip-rule="evenodd" d="M10 16.0411C10 16.0138 10.0034 15.9867 10.01 15.9602L10.6667 13.3334L11.3098 10.7609C11.3252 10.6994 11.3227 10.6347 11.3026 10.5746L10.7103 8.79767C10.6824 8.7138 10.6223 8.64448 10.5432 8.60494L9.51761 8.09215C9.40468 8.03569 9.33334 7.92027 9.33334 7.79401V5.41204C9.33334 5.36029 9.34539 5.30926 9.36853 5.26297L10 4.00002L10.5745 2.85095C10.631 2.73802 10.7464 2.66669 10.8727 2.66669H14.3333C14.5174 2.66669 14.6667 2.81593 14.6667 3.00002V3.66669C14.6667 3.85078 14.8159 4.00002 15 4.00002H15.6667C15.8508 4.00002 16 4.14926 16 4.33335V5.12734C16 5.2536 16.0713 5.36902 16.1843 5.42548L18.4824 6.57456C18.5953 6.63102 18.6667 6.74644 18.6667 6.8727V7.92133C18.6667 7.97308 18.6546 8.02412 18.6315 8.0704L18.0396 9.25418C18.0137 9.30606 17.9746 9.35028 17.9264 9.38246L16.0737 10.6176C16.0254 10.6498 15.9864 10.694 15.9604 10.7459L14.7063 13.2542C14.6803 13.3061 14.6413 13.3503 14.593 13.3825L12.7403 14.6176C12.6921 14.6498 12.653 14.694 12.6271 14.7459L11.4255 17.1491C11.369 17.262 11.2536 17.3334 11.1273 17.3334H10.3333C10.1492 17.3334 10 17.1841 10 17V16.0411Z" fill="white"/>
</g>
</g>
<defs>
<clipPath id="clip0_5138_2183">
<rect width="28" height="20" fill="white"/>
</clipPath>
</defs>
</svg>

<svg xmlns="http://www.w3.org/2000/svg" width="28" height="20" fill="none" viewBox="0 0 28 20"><g clip-path="url(#a)"><rect width="28" height="20" fill="#fff" rx="2"/><mask id="b" width="28" height="20" x="0" y="0" maskUnits="userSpaceOnUse" style="mask-type:luminance"><rect width="28" height="20" fill="#fff" rx="2"/></mask><g mask="url(#b)"><path fill="#19bfbf" d="M0 0h28v20H0z"/><path fill="#fff" fill-rule="evenodd" d="M10 16.0411a.33.33 0 0 1 .01-.0809l.6567-2.6268.6431-2.5725a.333.333 0 0 0-.0072-.1863l-.5923-1.777a.333.333 0 0 0-.1671-.1927l-1.0256-.5128a.333.333 0 0 1-.1843-.298V5.412c0-.0518.012-.1028.0352-.1491L10 4l.5745-1.149a.333.333 0 0 1 .2982-.1843h3.4606A.3334.3334 0 0 1 14.6667 3v.6667c0 .184.1492.3333.3333.3333h.6667A.3333.3333 0 0 1 16 4.3334v.794a.333.333 0 0 0 .1843.298l2.2981 1.1492a.333.333 0 0 1 .1843.2981v1.0486a.334.334 0 0 1-.0352.1491l-.5919 1.1838a.334.334 0 0 1-.1132.1283l-1.8527 1.2351a.334.334 0 0 0-.1133.1283l-1.2541 2.5083a.334.334 0 0 1-.1133.1283l-1.8527 1.2351a.334.334 0 0 0-.1132.1283l-1.2016 2.4032a.334.334 0 0 1-.2982.1843h-.794A.3334.3334 0 0 1 10 17z" clip-rule="evenodd"/></g></g><defs><clipPath id="a"><path fill="#fff" d="M0 0h28v20H0z"/></clipPath></defs></svg>
